!!!COM: Orlando di Lasso
!!!OTL: 2. Beatus homo
!!!OMV: Partie 1
**kern	**text	**kern	**text
*part2	*part2	*part1	*part1
*staff2	*staff2	*staff1	*staff1
*I"Altus	*	*I"Cantus	*
*clefC3	*	*clefC1	*
*k[]	*	*k[]	*
*C:	*	*C:	*
*M2/1	*	*M2/1	*
=1	=1	=1	=1
0d	Be-	0r	.
=2	=2	=2	=2
1f	-a-	0a	Be-
1d	-tus,	.	.
=3	=3	=3	=3
2r	.	1cc	-a-
2A	be-	.	.
2f	-a-	1a	-tus,
2d	-tus	.	.
=4	=4	=4	=4
2.f	ho-	2r	.
.	.	2d	be-
4e	.	.	.
4d	.	2f	-a-
4A	.	.	.
2B-X	.	2d	-tus
=5	=5	=5	=5
2G	-mo,	1b-X	ho-
2d.	qui	.	.
.	.	1a	-mo,
4e	.	.	.
4f	.	.	.
4d	.	.	.
=6	=6	=6	=6
2e	.	2r	.
2f	in	2a.	qui
2d	ve-	.	.
.	.	4bni	.
2A	-nit,	4cc	.
.	.	4a	.
=7	=7	=7	=7
2r	.	2b	.
2A.	qui	2cc	in
.	.	2a	ve-
4B	.	.	.
4c	.	2e	-nit,
4d	.	.	.
=8	=8	=8	=8
4e	.	2r	.
4f	.	.	.
2g	.	2e.	qui
2c	in	.	.
.	.	4f	.
2e.	ve-	4g	.
.	.	4a	.
=9	=9	=9	=9
.	.	4b	.
8dL	.	4cc	.
8cJ	.	.	.
2B	.	2dd	.
2c	-nit	2g	in
4F	sa-	2a.	ve-
4G	.	.	.
=10	=10	=10	=10
4A	.	.	.
4B	.	8gL	.
.	.	8fJ	.
4c	.	2e	.
4A	.	.	.
2d	.	2f	-ni
2c#X	-pi-	1a	sa-
=11	=11	=11	=11
4d	-en-	.	.
4A	.	.	.
2f.	.	2a	-pi-
.	.	2d	-en-
4e	.	.	.
1d	.	2f	-ti-
=12	=12	=12	=12
.	.	1e	-am,
2c#X	-ti-	.	.
0d	-am,	2r	.
.	.	1a	et
=13	=13	=13	=13
.	.	.	.
.	.	2b	qui
2r	.	1cc	af-
1A	et	.	.
=14	=14	=14	=14
.	.	2a	-flu-
2B	qui	1g	-it
1c	af-	.	.
.	.	4f	.
.	.	4e	.
=15	=15	=15	=15
2A	-flu-	2cc	.
2G	-it	2b.	pru-
1g	pru-	.	.
.	.	4cc	.
.	.	4dd	.
.	.	4b	.
=16	=16	=16	=16
2e	-den-	2cc	.
2f	-ti-	1a	-den-
1d	-a:	.	.
.	.	2b-X	-ti-
=17	=17	=17	=17
2r	.	1a	-a:
1f	me-	.	.
.	.	2r	.
2d	-li-	1a	me-
=18	=18	=18	=18
1d	-or,	.	.
.	.	2f	-li-
2r	.	1f	-or,
1d	me-	.	.
=19	=19	=19	=19
.	.	2r	.
2B-X	-li-	1f	me-
1B-	-or	.	.
.	.	2d	-li-
=20	=20	=20	=20
1f	est	2d	-or
.	.	1a	est
1d	ac-	.	.
.	.	2f	ac-
=21	=21	=21	=21
2e	-qui-	2g	-qui-
2f	-si-	2a	-si-
2d	-ti-	2b	-ti-
2c	-o	2cc.	-o
=22	=22	=22	=22
4A	e-	.	.
4B	.	4b	.
4c	.	2a	.
4d	.	.	.
4e	.	4g	e-
4f	.	4a	.
2g.	.	4b-X	.
.	.	4g	.
=23	=23	=23	=23
.	.	1a	.
4f	.	.	.
2f.	.	.	.
.	.	1g	-jus
8eL	.	.	.
8dJ	.	.	.
2e	.	.	.
=24	=24	=24	=24
1f	-jus	2r	.
.	.	2a	ne-
2r	.	2.f	-go-
2d	ne-	.	.
.	.	4f	-ti-
=25	=25	=25	=25
2.c	-go-	2g	-a-
.	.	2a	-ti-
4c	-ti-	.	.
2d	-a-	1b-X	-o-
2e	-ti-	.	.
=26	=26	=26	=26
1f	-o-	2a	-ne
.	.	2d	ar-
2e	-ne	2g	-gen-
2A	ar-	4f	.
.	.	4e	.
=27	=27	=27	=27
2d	-gen-	2f	.
4c	.	2g	-ti,
4B	.	.	.
2c	.	2r	.
2d	-ti,	2f	et
=28	=28	=28	=28
2r	.	1.cc	au-
2A	et	.	.
1e.	au-	.	.
.	.	4b	.
.	.	4a	.
=29	=29	=29	=29
.	.	2g	.
4d	.	2a	-ri
4c	.	.	.
2B	.	1g	pri-
2c	-ri	.	.
=30	=30	=30	=30
2B	pri-	2d	-mi
2G	-mi	2dd.	et
2.g	et	.	.
.	.	4cc	.
.	.	4b	.
4f	.	4a	.
=31	=31	=31	=31
4e	.	4g	.
4d	.	4f	.
4c	.	2e	.
4B	.	.	.
2A	.	2.cc	pu-
2f.	pu-	.	.
.	.	4b	.
=32	=32	=32	=32
.	.	4a	.
4e	.	4g	.
4d	.	2a	.
4c#X	.	.	.
2d	.	4a	-ris-
.	.	4g	.
4a	-ris-	4f	.
4g	.	4e	.
=33	=33	=33	=33
4f	.	4d	.
4e	.	4e	.
2d.	.	4f	.
.	.	4g	.
.	.	2.a	.
4e	.	.	.
1f	.	.	.
.	.	4b	.
=34	=34	=34	=34
.	.	4cc	.
.	.	4b	.
4e	.	1dd	.
4d	.	.	.
2e	.	.	.
2e	-si-	2cc#X	-si-
=35	=35	=35	=35
0d	-mi.	0dd	-mi.
==	==	==	==
*-	*-	*-	*-
!!!system-decoration: s1,s2
!!!RDF**kern: i = editorial accidental